X: 115
T: Song of the Fox Society (b)
C: Teton Sioux band 1911-1914
N: Derived from sioux115.krn
O: South Dakota, U.S.A.
N: Teton Sioux Music by Frances Densmore, 1918
Z: transcribed to **kern format by Craig Sapp
L: 1/8
M: 2/4
Q: 1/4=58
K: Eb clef=treble
%%linebreak <none>
G2E2- [I:setbarnb 2]| 
E2G2 ||  
[M:3/4]A< A G< G E/ E3/ ||  
[M:2/4]G< D C C | 
A, A,A,2 | 
C< C D/ D3/ | 
D< C A, A, | 
A,4 | 
A,3A, ||  
[M:3/4]A,2A,4 ||  
[M:2/4]G2E2- | 
E2G2 ||  
[M:3/4]A< A G< G E E | 
G< D C C A, A, ||  
[M:2/4]C< C D/ D3/ | 
D< C A, A, | 
A,4 | 
A,3A, | 
A,2A,2 |]  



